public/voice-bot-builder/assets/icon-api.svg

<svg enable-background="new 0 0 410 410" height="410" viewBox="0 0 410 410" width="410" xmlns="http://www.w3.org/2000/svg"><path d="m349.957 60.043c-38.72-38.72-90.201-60.043-144.957-60.043-54.757 0-106.238 21.323-144.957 60.043-38.72 38.719-60.043 90.2-60.043 144.957 0 54.756 21.323 106.236 60.043 144.957 38.719 38.72 90.2 60.043 144.957 60.043 54.756 0 106.237-21.323 144.957-60.043 38.72-38.721 60.043-90.201 60.043-144.957 0-54.757-21.323-106.238-60.043-144.957zm12.535 120.012h-79.54c-1.593-41.652-7.159-80.379-16.072-110.998-1.286-4.415-2.64-8.627-4.046-12.647 51.947 20.287 90.731 67.068 99.658 123.645zm-157.492 178.146c-4.181-6.247-10.438-19.219-16.121-42.676-5.904-24.359-9.692-54.093-11.012-85.58h54.266c-1.32 31.487-5.106 61.219-11.012 85.578-5.683 23.459-11.941 36.431-16.121 42.678zm-27.133-178.146c1.319-31.488 5.107-61.221 11.012-85.58 5.684-23.457 11.94-36.429 16.121-42.676 4.18 6.247 10.438 19.219 16.121 42.677 5.904 24.36 9.691 54.091 11.012 85.579zm-30.702-123.646c-1.407 4.021-2.762 8.232-4.046 12.647-8.914 30.619-14.479 69.346-16.072 110.998h-79.541c8.929-56.575 47.713-103.356 99.659-123.645zm-99.659 173.536h79.541c1.594 41.651 7.158 80.379 16.072 110.998 1.284 4.414 2.639 8.626 4.046 12.646-51.946-20.287-90.73-67.068-99.659-123.644zm215.328 123.646c1.406-4.021 2.76-8.23 4.046-12.646 8.913-30.618 14.479-69.347 16.072-110.998h79.54c-8.927 56.574-47.711 103.356-99.658 123.644z"/></svg>

<?xml version="1.0" encoding="iso-8859-1"?>
<svg version="1.1" id="Capa_1" xmlns="http://www.w3.org/2000/svg" xmlns:xlink="http://www.w3.org/1999/xlink" x="0px" y="0px"
	 width="410px" height="410px" viewBox="0 0 410 410" style="enable-background:new 0 0 410 410;" xml:space="preserve">
<g>
	<g>
		<path d="M349.957,60.043C311.237,21.323,259.756,0,205,0C150.243,0,98.762,21.323,60.043,60.043C21.323,98.762,0,150.243,0,205
			c0,54.756,21.323,106.236,60.043,144.957C98.762,388.677,150.243,410,205,410c54.756,0,106.237-21.323,144.957-60.043
			C388.677,311.236,410,259.756,410,205C410,150.243,388.677,98.762,349.957,60.043z M362.492,180.055h-79.54
			c-1.593-41.652-7.159-80.379-16.072-110.998c-1.286-4.415-2.64-8.627-4.046-12.647
			C314.781,76.697,353.565,123.478,362.492,180.055z M205,358.201c-4.181-6.247-10.438-19.219-16.121-42.676
			c-5.904-24.359-9.692-54.093-11.012-85.58h54.266c-1.32,31.487-5.106,61.219-11.012,85.578
			C215.438,338.982,209.18,351.954,205,358.201z M177.867,180.055c1.319-31.488,5.107-61.221,11.012-85.58
			c5.684-23.457,11.94-36.429,16.121-42.676c4.18,6.247,10.438,19.219,16.121,42.677c5.904,24.36,9.691,54.091,11.012,85.579
			H177.867z M147.165,56.409c-1.407,4.021-2.762,8.232-4.046,12.647c-8.914,30.619-14.479,69.346-16.072,110.998H47.506
			C56.435,123.479,95.219,76.698,147.165,56.409z M47.506,229.945h79.541c1.594,41.651,7.158,80.379,16.072,110.998
			c1.284,4.414,2.639,8.626,4.046,12.646C95.219,333.302,56.435,286.521,47.506,229.945z M262.834,353.591
			c1.406-4.021,2.76-8.23,4.046-12.646c8.913-30.618,14.479-69.347,16.072-110.998h79.54
			C353.565,286.521,314.781,333.303,262.834,353.591z"/>
	</g>
</g>
<g>
</g>
<g>
</g>
<g>
</g>
<g>
</g>
<g>
</g>
<g>
</g>
<g>
</g>
<g>
</g>
<g>
</g>
<g>
</g>
<g>
</g>
<g>
</g>
<g>
</g>
<g>
</g>
<g>
</g>
</svg>
